X:4014
T:Donnybrook Fair
T:Joy of My Life, The
R:Jig
C:Trad.
O:Ireland.
M:6/8
L:1/8
Q:1/8=160
K:G
D|"G"GFG AGA|"Em"Bee "D"dBA|"G"B3 GAB|"Am"AGF "Em"FED|
"G"GFG AGA|"Em"Bee "D"dBA|"G"B3 GAB|1 "D"AGF "G"G2:|2 "G"AGF G2f||
"Em"g3 "D"fed|"C"ege "D"dBA|"Em"Bee "D"dBA|"Em"Bee e2f|
"G"gfe "D"fed|"C"ege "D"dBA|"G"B3 GAB|"D"AGF "G"G2f|
"Em"g3 "D"fed|"C"ege "D"dBA|"G"Bee dBA|"Em"Bee e2f|
"G"g3 "D"a3|"Em"bge "D"dBA|"G"B3 GAB|"D"AGF "G"G3|]

